src/icons/icons_set_04/042-lien.svg

<svg height="50" viewBox="0 0 50 50" width="50" xmlns="http://www.w3.org/2000/svg"><g fill="none"><path d="m40.3843065 6.10067177c1.6012548-1.52193242 4.1330982-1.45762895 5.6550307.14362582 1.5219324 1.60125476 1.4576289 4.13309821-.1436259 5.65503061l-15.1400089 14.390009c-1.6012548 1.5219324-4.1330982 1.4576289-5.6550306-.1436259-1.5219325-1.6012547-1.457629-4.1330982.1436258-5.6550306z" fill="#000"/><path d="m43.1400089 9-15.1400089 14.3900089" fill="#d8d8d8"/><g fill="#000"><path d="m36 31.4472459c0-2.209139 1.790861-4 4-4s4 1.790861 4 4v10.5527541c0 2.209139-1.790861 4-4 4h-30c-2.209139 0-4-1.790861-4-4v-30c0-2.209139 1.790861-4 4-4h10.6593844c2.209139 0 4 1.790861 4 4s-1.790861 4-4 4h-6.6593844v22h22z"/><path d="m39 13h-7c-2.209139 0-4-1.790861-4-4s1.790861-4 4-4h11c2.209139 0 4 1.790861 4 4v10.75c0 2.209139-1.790861 4-4 4s-4-1.790861-4-4z"/></g></g></svg>

<?xml version="1.0" encoding="UTF-8"?>
<svg width="50px" height="50px" viewBox="0 0 50 50" version="1.1" xmlns="http://www.w3.org/2000/svg" xmlns:xlink="http://www.w3.org/1999/xlink">
    <!-- Generator: Sketch 52.4 (67378) - http://www.bohemiancoding.com/sketch -->
    <title>042-lien</title>
    <desc>Created with Sketch.</desc>
    <g id="042-lien" stroke="none" stroke-width="1" fill="none" fill-rule="evenodd">
        <path d="M40.3843065,6.10067177 C41.9855613,4.57873935 44.5174047,4.64304282 46.0393372,6.24429759 C47.5612696,7.84555235 47.4969661,10.3773958 45.8957113,11.8993282 L30.7557024,26.2893372 C29.1544476,27.8112696 26.6226042,27.7469661 25.1006718,26.1457113 C23.5787393,24.5444566 23.6430428,22.0126131 25.2442976,20.4906807 L40.3843065,6.10067177 Z" id="Path-3" fill="#000000" fill-rule="nonzero"></path>
        <path d="M43.1400089,9 L28,23.3900089" id="Path" fill="#D8D8D8" fill-rule="nonzero"></path>
        <path d="M36,31.4472459 C36,29.2381069 37.790861,27.4472459 40,27.4472459 C42.209139,27.4472459 44,29.2381069 44,31.4472459 L44,42 C44,44.209139 42.209139,46 40,46 L10,46 C7.790861,46 6,44.209139 6,42 L6,12 C6,9.790861 7.790861,8 10,8 L20.6593844,8 C22.8685234,8 24.6593844,9.790861 24.6593844,12 C24.6593844,14.209139 22.8685234,16 20.6593844,16 L14,16 L14,38 L36,38 L36,31.4472459 Z" id="Path-2" fill="#000000" fill-rule="nonzero"></path>
        <path d="M39,13 L32,13 C29.790861,13 28,11.209139 28,9 C28,6.790861 29.790861,5 32,5 L43,5 C45.209139,5 47,6.790861 47,9 L47,19.75 C47,21.959139 45.209139,23.75 43,23.75 C40.790861,23.75 39,21.959139 39,19.75 L39,13 Z" id="Path-5" fill="#000000" fill-rule="nonzero"></path>
    </g>
</svg>
